!!!OTL: WIE LIEBLICH SCHALLT IM GRUENEN WALD
!!!ARE: Europa, Mitteleuropa, Deutschland
!!!SCT: B0174
!!!YEM: Copyright 1995, estate of Helmut Schaffrath.
**kern
*ICvox
*Ivox
*M6/8
*k[f#]
*G:
{8d
=1
8g
8a
8b
4a
8d
=2
8a
8b
8cc
4b}
{8b
=3
4dd
8b
8dd
8cc
8b
=4
2a
8r}
{8d
=5
4cc
8cc
4b
8g
=6
4ee
8ee
4dd}
{8dd
=7
4b
8b
4a
8a
=8
2g
8r}
{8dd
=9
4b
8b
4a
8a
=10
2g
8r}
==
!!!AGN: Natur -, Wander -, Kinder - Lied, Wald
!!!ONB: ESAC (Essen Associative Code) Database: BOEHME
!!!AMT: compound duple
!!!AIN: vox
!!!EED: Helmut Schaffrath
!!!EEV: 1.0
*-
